images/icons/v2/link-16.svg

<svg fill="none" height="8" viewBox="0 0 22 8" width="22" xmlns="http://www.w3.org/2000/svg"><path d="m21.5 4.25c0 .99456-.3951 1.94839-1.0984 2.65165-.7032.70326-1.657 1.09835-2.6516 1.09835h-6c-.9946 0-1.94839-.39509-2.65165-1.09835s-1.09835-1.65709-1.09835-2.65165c.00051-.25185.02563-.50304.075-.75h1.563c-.08883.24019-.13551.49392-.138.75 0 .59674.23705 1.16903.659 1.59099.422.42196.9943.65901 1.591.65901h6c.5967 0 1.169-.23705 1.591-.65901.4219-.42196.659-.99425.659-1.59099s-.2371-1.16903-.659-1.59099c-.422-.42196-.9943-.65901-1.591-.65901h-2.25l-1.5-1.5h3.75c.9946 0 1.9484.395088 2.6516 1.09835.7033.70326 1.0984 1.65709 1.0984 2.65165zm-17.25 3.75h3.75l-1.5-1.5h-2.25c-.59674 0-1.16903-.23705-1.59099-.65901s-.65901-.99425-.65901-1.59099.23705-1.16903.65901-1.59099.99425-.65901 1.59099-.65901h6c.5967 0 1.169.23705 1.591.65901.4219.42196.659.99425.659 1.59099-.0025.25608-.0492.50981-.138.75h1.563c.0494-.24696.0745-.49815.075-.75 0-.99456-.3951-1.94839-1.0983-2.65165-.7033-.703262-1.6571-1.09835-2.6517-1.09835h-6c-.99456 0-1.94839.395088-2.65165 1.09835-.703262.70326-1.09835 1.65709-1.09835 2.65165s.395088 1.94839 1.09835 2.65165c.70326.70326 1.65709 1.09835 2.65165 1.09835z" fill="#000"/></svg>

<svg width="22" height="8" viewBox="0 0 22 8" fill="none" xmlns="http://www.w3.org/2000/svg">
<path d="M21.5 4.25C21.5 5.24456 21.1049 6.19839 20.4016 6.90165C19.6984 7.60491 18.7446 8 17.75 8H11.75C10.7554 8 9.80161 7.60491 9.09835 6.90165C8.39509 6.19839 8 5.24456 8 4.25C8.00051 3.99815 8.02563 3.74696 8.075 3.5H9.638C9.54917 3.74019 9.50249 3.99392 9.5 4.25C9.5 4.84674 9.73705 5.41903 10.159 5.84099C10.581 6.26295 11.1533 6.5 11.75 6.5H17.75C18.3467 6.5 18.919 6.26295 19.341 5.84099C19.7629 5.41903 20 4.84674 20 4.25C20 3.65326 19.7629 3.08097 19.341 2.65901C18.919 2.23705 18.3467 2 17.75 2H15.5L14 0.5H17.75C18.7446 0.5 19.6984 0.895088 20.4016 1.59835C21.1049 2.30161 21.5 3.25544 21.5 4.25ZM4.25 8H8L6.5 6.5H4.25C3.65326 6.5 3.08097 6.26295 2.65901 5.84099C2.23705 5.41903 2 4.84674 2 4.25C2 3.65326 2.23705 3.08097 2.65901 2.65901C3.08097 2.23705 3.65326 2 4.25 2H10.25C10.8467 2 11.419 2.23705 11.841 2.65901C12.2629 3.08097 12.5 3.65326 12.5 4.25C12.4975 4.50608 12.4508 4.75981 12.362 5H13.925C13.9744 4.75304 13.9995 4.50185 14 4.25C14 3.25544 13.6049 2.30161 12.9017 1.59835C12.1984 0.895088 11.2446 0.5 10.25 0.5H4.25C3.25544 0.5 2.30161 0.895088 1.59835 1.59835C0.895088 2.30161 0.5 3.25544 0.5 4.25C0.5 5.24456 0.895088 6.19839 1.59835 6.90165C2.30161 7.60491 3.25544 8 4.25 8Z" fill="black"/>
</svg>
